humanity-icon-theme/Humanity/categories/16/applications-office.svg

<?xml version="1.0" encoding="UTF-8" standalone="no"?>
<!-- Created with Inkscape (http://www.inkscape.org/) -->

<svg
   xmlns:svg="http://www.w3.org/2000/svg"
   xmlns="http://www.w3.org/2000/svg"
   xmlns:xlink="http://www.w3.org/1999/xlink"
   version="1.0"
   width="16"
   height="16"
   id="svg11300">
  <defs
     id="defs3">
    <linearGradient
       id="linearGradient6482">
      <stop
         id="stop6484"
         style="stop-color:#cd8033;stop-opacity:1"
         offset="0" />
      <stop
         id="stop6486"
         style="stop-color:#bb5e12;stop-opacity:1"
         offset="1" />
    </linearGradient>
    <linearGradient
       id="linearGradient6288">
      <stop
         id="stop6290"
         style="stop-color:#969696;stop-opacity:1"
         offset="0" />
      <stop
         id="stop6292"
         style="stop-color:#bebebe;stop-opacity:1"
         offset="1" />
    </linearGradient>
    <linearGradient
       id="linearGradient6280">
      <stop
         id="stop6282"
         style="stop-color:white;stop-opacity:1"
         offset="0" />
      <stop
         id="stop6284"
         style="stop-color:#dcdcdc;stop-opacity:1"
         offset="1" />
    </linearGradient>
    <linearGradient
       id="linearGradient4103">
      <stop
         id="stop4105"
         style="stop-color:#edd563;stop-opacity:1"
         offset="0" />
      <stop
         id="stop4107"
         style="stop-color:#e08223;stop-opacity:1"
         offset="1" />
    </linearGradient>
    <linearGradient
       id="linearGradient2264">
      <stop
         id="stop2266"
         style="stop-color:#d7e866;stop-opacity:1"
         offset="0" />
      <stop
         id="stop2268"
         style="stop-color:#8cab2a;stop-opacity:1"
         offset="1" />
    </linearGradient>
    <linearGradient
       id="linearGradient4103-772-865-112-606">
      <stop
         id="stop139214"
         style="stop-color:#a7bce2;stop-opacity:1"
         offset="0" />
      <stop
         id="stop139216"
         style="stop-color:#5077b1;stop-opacity:1"
         offset="1" />
    </linearGradient>
    <linearGradient
       x1="28.999998"
       y1="30"
       x2="28.999998"
       y2="48"
       id="linearGradient6782"
       xlink:href="#linearGradient4103"
       gradientUnits="userSpaceOnUse"
       gradientTransform="matrix(0.4000985,0,0,0.4117903,-5.1028402,-4.059834)" />
    <linearGradient
       x1="126.00002"
       y1="43.999996"
       x2="126.00002"
       y2="52"
       id="linearGradient6784"
       xlink:href="#linearGradient6482"
       gradientUnits="userSpaceOnUse"
       gradientTransform="translate(-121,-36)" />
    <linearGradient
       x1="37"
       y1="35.000004"
       x2="37"
       y2="48"
       id="linearGradient6787"
       xlink:href="#linearGradient2264"
       gradientUnits="userSpaceOnUse"
       gradientTransform="matrix(0.4016572,0,0,0.4173277,-4.3613102,-4.319101)" />
    <linearGradient
       x1="45"
       y1="24.999998"
       x2="45"
       y2="48"
       id="linearGradient6790"
       xlink:href="#linearGradient4103-772-865-112-606"
       gradientUnits="userSpaceOnUse"
       gradientTransform="matrix(0.4014978,0,0,0.3639646,-3.5673902,-1.784707)" />
    <linearGradient
       x1="9.4142141"
       y1="9.4142122"
       x2="48.850956"
       y2="34.939339"
       id="linearGradient5565"
       xlink:href="#linearGradient6280"
       gradientUnits="userSpaceOnUse"
       gradientTransform="matrix(0.3414454,0,0,0.4444139,-2.4019619,-3.277098)" />
    <linearGradient
       x1="48.850956"
       y1="34.939339"
       x2="9.4142141"
       y2="9.4142122"
       id="linearGradient5567"
       xlink:href="#linearGradient6288"
       gradientUnits="userSpaceOnUse"
       gradientTransform="matrix(0.3414454,0,0,0.4444139,-2.4019619,-3.277098)" />
  </defs>
  <g
     id="g6341">
    <rect
       width="13.999607"
       height="11.999606"
       x="0.5001967"
       y="0.50019717"
       id="rect7057"
       style="fill:url(#linearGradient5565);fill-opacity:1;fill-rule:evenodd;stroke:url(#linearGradient5567);stroke-width:1.00039339;stroke-linecap:round;stroke-linejoin:round;stroke-miterlimit:4;stroke-opacity:1;stroke-dasharray:none;stroke-dashoffset:0;display:inline;enable-background:new" />
    <rect
       width="1"
       height="7"
       x="4.9999814"
       y="3.0000012"
       id="rect7142"
       style="fill:#bebebe;fill-opacity:1;fill-rule:evenodd;stroke:none;display:inline;enable-background:new" />
    <rect
       width="1"
       height="7"
       x="1.9999816"
       y="3.0000012"
       id="rect7140"
       style="fill:#bebebe;fill-opacity:1;fill-rule:evenodd;stroke:none" />
    <rect
       width="1"
       height="8"
       x="12"
       y="3"
       id="rect7144"
       style="fill:#bebebe;fill-opacity:1;fill-rule:evenodd;stroke:none;display:inline;enable-background:new" />
    <path
       d="m 1.9999816,10 0,1 L 13,11 13,10 1.9999816,10 z"
       id="path7108"
       style="fill:#fed995;fill-opacity:1;fill-rule:evenodd;stroke:none;display:inline;enable-background:new" />
    <path
       d="m 1.9999816,9 0,1 L 13,10 13,9 1.9999816,9 z"
       id="path7110"
       style="fill:#c7af64;fill-opacity:1;fill-rule:evenodd;stroke:none;display:inline;enable-background:new" />
    <path
       d="m 1.9999816,7 0,1 L 13,8 13,7 1.9999816,7 z"
       id="path7136"
       style="fill:#fed995;fill-opacity:1;fill-rule:evenodd;stroke:none;display:inline;enable-background:new" />
    <path
       d="m 1.9999816,6 0,1 L 13,7 13,6 1.9999816,6 z"
       id="path7073"
       style="fill:#c7af64;fill-opacity:1;fill-rule:evenodd;stroke:none;display:inline;enable-background:new" />
    <rect
       width="11.000018"
       height="1"
       x="1.9999816"
       y="3.0000012"
       id="rect7128"
       style="fill:#deaa76;fill-opacity:1;fill-rule:evenodd;stroke:none;display:inline;enable-background:new" />
    <path
       d="m 1.9999816,2.0000013 0,1 11.0000184,0 0,-1 -11.0000184,0 z"
       id="path7138"
       style="fill:#cd8033;fill-opacity:1;fill-rule:evenodd;stroke:none;display:inline;enable-background:new" />
    <path
       d="m 2,4 0,1 11.000018,0 0,-1 L 2,4 z"
       id="path5569"
       style="fill:#cd8033;fill-opacity:1;fill-rule:evenodd;stroke:none;display:inline;enable-background:new" />
    <rect
       width="1"
       height="9"
       x="12"
       y="2"
       id="rect7154"
       style="opacity:0.15;fill:black;fill-opacity:1;fill-rule:evenodd;stroke:none;display:inline;enable-background:new" />
    <rect
       width="1"
       height="8.999999"
       x="1.9999816"
       y="2.0000012"
       id="rect7146"
       style="opacity:0.15;fill:black;fill-opacity:1;fill-rule:evenodd;stroke:none;display:inline;enable-background:new" />
    <rect
       width="1"
       height="8.999999"
       x="4.9999814"
       y="2.0000012"
       id="rect7152"
       style="opacity:0.15;fill:black;fill-opacity:1;fill-rule:evenodd;stroke:none;display:inline;enable-background:new" />
    <rect
       width="2.0046153"
       height="8.0046215"
       x="13.497696"
       y="7.4976883"
       id="rect7114"
       style="fill:url(#linearGradient6790);fill-opacity:1;fill-rule:evenodd;stroke:#0854a9;stroke-width:0.99537802;stroke-linecap:round;stroke-linejoin:miter;stroke-miterlimit:4;stroke-opacity:1;stroke-dasharray:none;stroke-dashoffset:0;display:inline;enable-background:new" />
    <rect
       width="2.0173452"
       height="5.017345"
       x="9.491333"
       y="10.491325"
       id="rect7118"
       style="fill:url(#linearGradient6787);fill-opacity:1;fill-rule:evenodd;stroke:#42770c;stroke-width:0.98265672;stroke-linecap:round;stroke-linejoin:miter;stroke-miterlimit:4;stroke-opacity:1;stroke-dasharray:none;stroke-dashoffset:0;display:inline;enable-background:new" />
    <rect
       width="2.0027833"
       height="7.0027957"
       x="5.4986191"
       y="8.4986"
       id="rect7122"
       style="fill:url(#linearGradient6782);fill-opacity:1;fill-rule:evenodd;stroke:url(#linearGradient6784);stroke-width:0.99720585;stroke-linecap:round;stroke-linejoin:miter;stroke-miterlimit:4;stroke-opacity:1;stroke-dasharray:none;stroke-dashoffset:0;display:inline;enable-background:new" />
    <rect
       width="10.999998"
       height="1"
       x="5"
       y="15"
       id="rect7112"
       style="fill:#464646;fill-opacity:1;fill-rule:evenodd;stroke:none" />
  </g>
</svg>

<?xml version="1.0" encoding="UTF-8" standalone="no"?>
<!-- Created with Inkscape (http://www.inkscape.org/) -->
<svg id="svg11300" xmlns="http://www.w3.org/2000/svg" height="16" width="16" version="1.0" xmlns:xlink="http://www.w3.org/1999/xlink">
 <defs id="defs3">
  <linearGradient id="linearGradient6782" y2="48" gradientUnits="userSpaceOnUse" x2="29" gradientTransform="matrix(.40010 0 0 .41179 -5.1028 -4.0598)" y1="30" x1="29">
   <stop id="stop4105" style="stop-color:#edd563" offset="0"/>
   <stop id="stop4107" style="stop-color:#e08223" offset="1"/>
  </linearGradient>
  <linearGradient id="linearGradient6784" y2="52" gradientUnits="userSpaceOnUse" x2="126" gradientTransform="translate(-121,-36)" y1="44" x1="126">
   <stop id="stop6484" style="stop-color:#cd8033" offset="0"/>
   <stop id="stop6486" style="stop-color:#bb5e12" offset="1"/>
  </linearGradient>
  <linearGradient id="linearGradient6787" y2="48" gradientUnits="userSpaceOnUse" x2="37" gradientTransform="matrix(.40166 0 0 .41733 -4.3613 -4.3191)" y1="35" x1="37">
   <stop id="stop2266" style="stop-color:#d7e866" offset="0"/>
   <stop id="stop2268" style="stop-color:#8cab2a" offset="1"/>
  </linearGradient>
  <linearGradient id="linearGradient6790" y2="48" gradientUnits="userSpaceOnUse" x2="45" gradientTransform="matrix(.40150 0 0 .36396 -3.5674 -1.7847)" y1="25" x1="45">
   <stop id="stop139214" style="stop-color:#a7bce2" offset="0"/>
   <stop id="stop139216" style="stop-color:#5077b1" offset="1"/>
  </linearGradient>
  <linearGradient id="linearGradient5565" y2="34.939" gradientUnits="userSpaceOnUse" x2="48.851" gradientTransform="matrix(.34145 0 0 .44441 -2.402 -3.2771)" y1="9.4142" x1="9.4142">
   <stop id="stop6282" style="stop-color:#fff" offset="0"/>
   <stop id="stop6284" style="stop-color:#dcdcdc" offset="1"/>
  </linearGradient>
  <linearGradient id="linearGradient5567" y2="9.4142" gradientUnits="userSpaceOnUse" x2="9.4142" gradientTransform="matrix(.34145 0 0 .44441 -2.402 -3.2771)" y1="34.939" x1="48.851">
   <stop id="stop6290" style="stop-color:#969696" offset="0"/>
   <stop id="stop6292" style="stop-color:#bebebe" offset="1"/>
  </linearGradient>
 </defs>
 <g id="g6341">
  <rect id="rect7057" style="stroke-linejoin:round;stroke-width:1.0004;fill-rule:evenodd;stroke:url(#linearGradient5567);stroke-linecap:round;enable-background:new;fill:url(#linearGradient5565)" height="12" width="14" y=".50020" x=".50020"/>
  <rect id="rect7142" style="enable-background:new;fill:#bebebe;fill-rule:evenodd" height="7" width="1" y="3" x="5"/>
  <rect id="rect7140" style="fill:#bebebe;fill-rule:evenodd" height="7" width="1" y="3" x="2"/>
  <rect id="rect7144" style="enable-background:new;fill:#bebebe;fill-rule:evenodd" height="8" width="1" y="3" x="12"/>
  <path id="path7108" style="enable-background:new;fill:#fed995;fill-rule:evenodd" d="m2 10v1h11v-1h-11z"/>
  <path id="path7110" style="enable-background:new;fill:#c7af64;fill-rule:evenodd" d="m2 9v1h11v-1h-11z"/>
  <path id="path7136" style="enable-background:new;fill:#fed995;fill-rule:evenodd" d="m2 7v1h11v-1h-11z"/>
  <path id="path7073" style="enable-background:new;fill:#c7af64;fill-rule:evenodd" d="m2 6v1h11v-1h-11z"/>
  <rect id="rect7128" style="enable-background:new;fill:#deaa76;fill-rule:evenodd" height="1" width="11" y="3" x="2"/>
  <path id="path7138" style="enable-background:new;fill:#cd8033;fill-rule:evenodd" d="m2 2v1h11v-1h-11z"/>
  <path id="path5569" style="enable-background:new;fill:#cd8033;fill-rule:evenodd" d="m2 4v1h11v-1h-11z"/>
  <rect id="rect7154" style="opacity:.15;fill-rule:evenodd;enable-background:new" height="9" width="1" y="2" x="12"/>
  <rect id="rect7146" style="opacity:.15;fill-rule:evenodd;enable-background:new" height="9" width="1" y="2" x="2"/>
  <rect id="rect7152" style="opacity:.15;fill-rule:evenodd;enable-background:new" height="9" width="1" y="2" x="5"/>
  <rect id="rect7114" style="stroke-width:.99538;fill-rule:evenodd;stroke:#0854a9;stroke-linecap:round;enable-background:new;fill:url(#linearGradient6790)" height="8.0046" width="2.0046" y="7.4977" x="13.498"/>
  <rect id="rect7118" style="stroke-width:.98266;fill-rule:evenodd;stroke:#42770c;stroke-linecap:round;enable-background:new;fill:url(#linearGradient6787)" height="5.0173" width="2.0173" y="10.491" x="9.4913"/>
  <rect id="rect7122" style="stroke-width:.99721;fill-rule:evenodd;stroke:url(#linearGradient6784);stroke-linecap:round;enable-background:new;fill:url(#linearGradient6782)" height="7.0028" width="2.0028" y="8.4986" x="5.4986"/>
  <rect id="rect7112" style="fill:#464646;fill-rule:evenodd" height="1" width="11" y="15" x="5"/>
 </g>
</svg>
